public/assets/4.svg

<svg width="193" height="200" viewBox="0 0 193 200" fill="none" xmlns="http://www.w3.org/2000/svg">
<g filter="url(#filter0_d)">
<path d="M29.5352 155.051L46.2859 27.4946L157.92 17.073L157.92 169.224L29.5352 155.051Z" fill="#FFF1F0"/>
</g>
<path d="M130.467 124.36L131.507 106.68L130.077 104.47H121.107L121.627 61.1802H98.2269L67.5469 106.29V122.28L69.1069 124.36L83.6669 123.84H100.437L99.9169 138.79L101.217 140.35L121.107 139.18L122.407 137.49L121.627 124.1L130.467 124.36ZM88.9969 104.47L99.3969 89.0002H100.827L100.957 104.47H88.9969Z" fill="#3F7AD3"/>
<defs>
<filter id="filter0_d" x="0" y="0" width="193" height="199.028" filterUnits="userSpaceOnUse" color-interpolation-filters="sRGB">
<feFlood flood-opacity="0" result="BackgroundImageFix"/>
<feColorMatrix in="SourceAlpha" type="matrix" values="0 0 0 0 0 0 0 0 0 0 0 0 0 0 0 0 0 0 127 0"/>
<feOffset/>
<feGaussianBlur stdDeviation="2.5"/>
<feColorMatrix type="matrix" values="0 0 0 0 0 0 0 0 0 0 0 0 0 0 0 0 0 0 0.25 0"/>
<feBlend mode="normal" in2="BackgroundImageFix" result="effect1_dropShadow"/>
<feBlend mode="normal" in="SourceGraphic" in2="effect1_dropShadow" result="shape"/>
</filter>
</defs>
</svg>

<svg width="193" height="200" fill="none" xmlns="http://www.w3.org/2000/svg"><g filter="url(#filter0_d)"><path d="M29.535 155.051l16.75-127.556L157.92 17.073v152.151L29.535 155.051z" fill="#FFF1F0"/></g><path d="M130.467 124.36l1.04-17.68-1.43-2.21h-8.97l.52-43.29h-23.4l-30.68 45.11v15.99l1.56 2.08 14.56-.52h16.77l-.52 14.95 1.3 1.56 19.89-1.17 1.3-1.69-.78-13.39 8.84.26zm-41.47-19.89L99.397 89h1.43l.13 15.47h-11.96z" fill="#3F7AD3"/><defs><filter id="filter0_d" x="0" y="0" width="193" height="199.028" filterUnits="userSpaceOnUse" color-interpolation-filters="sRGB"><feFlood flood-opacity="0" result="BackgroundImageFix"/><feColorMatrix in="SourceAlpha" values="0 0 0 0 0 0 0 0 0 0 0 0 0 0 0 0 0 0 127 0"/><feOffset/><feGaussianBlur stdDeviation="2.5"/><feColorMatrix values="0 0 0 0 0 0 0 0 0 0 0 0 0 0 0 0 0 0 0.25 0"/><feBlend in2="BackgroundImageFix" result="effect1_dropShadow"/><feBlend in="SourceGraphic" in2="effect1_dropShadow" result="shape"/></filter></defs></svg>
